X:646
T:Mason's Apron, The
R:reel
H:This is quite a different two-part version. See also #643, #644, #645
D:Kevin Burke: If the Cap Fits.
Z:id:hn-reel-646
M:C|
K:A
af|:ec~c2 BcAF|EFAB c2BA|FB~B2 cB~B2|cefg abaf|
e2cA BF~F2|EFAB cABc|~d3e fgaf|1 edcB A2af:|2 edcB A2AB||
|:c2ec fcec|c2ec fedc|df~f2 gf~f2|df~f2 gfec|
Acec fcec|Ac~c2 fcec|dcde fgaf|1 edcB A2AB:|2 edcB A2||
